X:1
T: Trains in Scotland
C:Bruce Shawyer
R:Reel
Q:232
K:A
M:4/4
L:1/8
|:"A"cBA2 ABc2|"Bm"dcBA "E7"G2E2|"A"cBA2 ABc2|"Bm"defd "E7"e4|
"A"cBA2 ABc2|"Bm"dcBA "E7"G2E2|"F#m"FGAF "E7"GABG|"A"A2A2 A4|
"A"edc2 cde2|"Bm"fedc B2c2|dcB2 Bcd2|"A"edcB c4|
"A"edc2 cde2|"Bm"defd "E7"efge|"F#m"agfe "Bm"dcBA|"E7"GABG "A"A4:|
